casedrop/img/media/tg.svg

<svg width="21" height="18" viewBox="0 0 21 18" fill="none" xmlns="http://www.w3.org/2000/svg">
<path d="M18.8467 0.502184C18.8467 0.502184 20.7085 -0.223754 20.5533 1.53924C20.5016 2.26519 20.0362 4.80597 19.6742 7.55418L18.433 15.6951C18.433 15.6951 18.3296 16.8877 17.3988 17.0951C16.4679 17.3025 15.0716 16.3692 14.813 16.1617C14.6062 16.0062 10.9345 13.6728 9.64162 12.5321C9.27961 12.2209 8.8659 11.5987 9.69332 10.8727L15.1233 5.68749C15.7439 5.06525 16.3645 3.61337 13.7787 5.37637L6.53878 10.3024C6.53878 10.3024 5.71135 10.8209 4.15995 10.3542L0.798514 9.31718C0.798514 9.31718 -0.442628 8.53939 1.67766 7.76156C6.84909 5.32447 13.2099 2.83554 18.8467 0.502184Z" fill="white"/>
</svg>

<svg width="21" height="18" fill="none" xmlns="http://www.w3.org/2000/svg"><path d="M18.847.502s1.861-.726 1.706 1.037c-.051.726-.517 3.267-.879 6.015l-1.241 8.141s-.103 1.193-1.034 1.4c-.931.207-2.327-.726-2.586-.933-.207-.156-3.879-2.49-5.171-3.63-.362-.311-.776-.933.051-1.66l5.43-5.185c.62-.622 1.242-2.074-1.344-.31l-7.24 4.925s-.828.519-2.379.052L.799 9.317s-1.242-.778.879-1.555C6.849 5.324 13.21 2.836 18.847.502z" fill="#fff"/></svg>
